X:3529
T:Crehan's
M:4/4
L:1/8
S:Martin Rocheford
R:Reel
K:D
d2 fd BAFE|DB, (3B,B,B, A,B,DE|FABc (3ddd dc| (3BBB ef edBc|
(3ddd fd BAFE| DB, (3B,B,B, A,B,DE|FAdf ec (3dcB AFEG FDDA :||
d2 (3ddd bdad|gdfd edBd|Ad (3ddd Adfg|afdf (3eee fa|
bf (3fff afec| defd ecdB|ABdf ecdB|AFEG FD D2:||


